X: 1
T: Bonnie Dundee
R: jig
B: RSCDS Graded 1 #15
Z: 1997 by John Chambers <jc:trillian.mit.edu>
M: 6/8
L: 1/8
K: G
B/c/ \
| "G"d>ed dBd | "C"gfe "D7"d2c | "G"BdD BdD | "D7"A2A ABc \
| "G"d>ed dBd | "C"gfe "D7"d2c | "G"(B<d)D "D7"(A<d)D | "G"G>AG G2 :|
|: D \
| "G"G2G GcB | "D7"ADD D2D | A2A ABc | "G"cBB B2G | "G"B>AB "D7"cBc \
| "G"dcd "C"edc | "G"(B<d)D "D7"(A<d)D | "G"G>AG G2 :|
